!!!COM: Scriabin, Alexander
!!!OTL@@FR: Etude
!!!OTL@@EN:
!!!OPR@@FR: 8 Etudes
!!!OPS: 42
!!!ONM: 8
!!!ODT: 1903
!!!AGN: Etude
**kern	**kern	**dynam
*staff2	*staff1	*staff1/2
*Ipiano	*Ipiano	*
*clefF4	*clefG2	*
*k[b-e-a-]	*k[b-e-a-]	*
*E-:	*E-:	*
*M4/4	*M4/4	*
*met(c)	*met(c)	*
=1	=1	=1
10.r	10.r	.
[10F	20cLL	.
.	20e-JJ	.
10.F]	20a-LL	.
.	20e-	.
.	20cJJ	.
10r	10r	.
12r	10.r	.
12r	.	.
.	20e-LL	.
12cL	.	.
.	20a-	.
12F	20ee-	.
.	20a-	.
12BB-J	.	.
.	20e-JJ	.
.	40cLLL	.
12A-L	.	.
.	40e-	.
.	40a-	.
.	40ccJ	.
=2	=2	=2
12BB-	20gg	.
.	20cc	.
12EE-J	.	.
.	20a-JJ	.
.	20ee-LL	.
12FL 12c	.	.
.	20g	.
12BB-	20dd	.
.	20a-	.
12EE-J	.	.
.	20e-JJ	.
.	20ccLL	.
12A-L	.	.
.	20d	.
12BB-	20b-	.
.	20e-	.
12EE-J	.	.
.	20cJJ	.
.	20a-LL	.
12FL	.	.
.	20Bn	.
12BB-	20f	.
.	20c	.
12EE-J	.	.
.	20A-JJ	.
.	40e-LLL	.
12FL 12c	.	.
.	40a-	.
.	40cc	.
.	40ee-J	.
=3	=3	=3
12BB-	20bb-	.
.	20ee-	.
12EE-J	.	.
.	20ccJJ	.
.	20ggLL	.
12A-L 12e-	.	.
.	20bn	.
12BB-	20ff	.
.	20cc	.
12EE-J	.	.
.	20a-JJ	.
.	20ee-LL	.
12FL 12c	.	.
.	20g	.
12BB-	20dd	.
.	20a-	.
12EE-J	.	.
.	20e-JJ	.
.	20ccLL	.
12FL	.	.
.	20d	.
12BB-	20a-	.
.	20e-	.
12EE-J	.	.
.	20cJJ	.
.	20ccLL	.
[12BB-L 12G	.	.
.	20en	.
=4	=4	=4
*^	*	*
12BB-] 12A-	4rEE	20b-	.
.	.	20f	.
12EE-J	.	.	.
.	.	20dJJ	.
.	.	20ggLL	.
[12B-L 12g	.	.	.
.	.	20cc#X	.
12B-J] 12a-	4rEE	20ff	.
.	.	20dd	.
12rc	.	.	.
.	.	20b-JJ	.
.	.	20a-LL	.
12C-XL 12A-	.	.	.
.	.	20d	.
12An	4rEE	20g	.
.	.	20e-	.
12EE-J	.	.	.
.	.	20c-XJJ	.
.	.	20ffLL	.
[12A [12e-	.	.	.
.	.	20cc-X	.
12AL_ 12e-_	12rEE	20ee-	.
.	.	20cc-	.
12AJ] 12e-]	12rEE	.	.
.	.	20gJJ	.
.	.	20ddLL	.
[12B-	12DL	.	.
.	.	20f#X	.
=5	=5	=5	=5
6B-]	12E-	20dd	.
.	.	20g	.
.	12FFJ	.	.
.	.	20e-JJ	.
.	.	20ddLL	.
[12An	12DL	.	.
.	.	20fn	.
6A]	12E-	20dd	.
.	.	20g-X	.
.	12FFJ	.	.
.	.	20e-JJ	.
.	.	20b-LL	.
[12B-	12C#XL	.	.
.	.	20en	.
6B-]	12D	20b-	.
.	.	20f	.
.	12BB-J	.	.
.	.	20dJJ	.
.	.	20B-LL	.
12rc	12rEE	.	.
.	.	20d	.
6rc	4rEE	20f	.
.	.	20b-	.
.	.	20ddJJ	.
.	.	40e-XLLL	.
12BB-L	.	.	.
.	.	40a-	.
.	.	40cc	.
.	.	40ee-J	.
*v	*v	*	*
=6	=6	=6
12F	20bb-	.
.	20ee-	.
12A-J	.	.
.	20ccJJ	.
.	20aa-LL	.
12e-L	.	.
.	20bn	.
12a-J	20gg	.
.	20cc	.
12r	.	.
.	20a-JJ	.
.	20ffLL	.
12r	.	.
.	20g	.
4r	20ee-	.
.	20a-	.
.	20fJJ	.
.	20ccLL	.
.	20d	.
12r	20b-X	.
.	20e-	.
12r	.	.
.	20cJJ	.
.	20a-LL	.
12EnL	.	.
.	20d	.
=7	=7	=7
12F	20a-	.
.	20e-	.
12BB-J	.	.
.	20cJJ	.
.	20fLL	.
12GL	.	.
.	20c#X	.
12A-	20f	.
.	20d	.
12BB-J	.	.
.	20B-JJ	.
.	20a-LL	.
12EnL	.	.
.	20d	.
12F	20a-	.
.	20e-	.
12BB-J	.	.
.	20cnJJ	.
.	20fLL	.
12GL	.	.
.	20c#X	.
12A-	20f	.
.	20d	.
12BB-J	.	.
.	20B-JJ	.
.	40a-LLL	.
12BB-L	.	.
.	40ccn	.
.	40ee-	.
.	40aa-J	.
=8	=8	=8
*^	*	*
12F	4rEE	20ddd	.
.	.	20aa-	.
12e-J	.	.	.
.	.	20ee-JJ	.
.	.	20cccLL	.
*clefG2	*	*	*
12a-L	.	.	.
.	.	20dd	.
12ccJ	4rc	20bb-	.
.	.	20ee-	.
12raa	.	.	.
.	.	20ccJJ	.
.	.	20aa-LL	.
12raa	.	.	.
.	.	20bn	.
*clefF4	*	*	*
4rc	4rEE	20gg	.
.	.	20cc	.
.	.	20a-JJ	.
.	.	20ffLL	.
.	.	20g	.
12rc	12rEE	20ee-	.
.	.	20a-	.
12rc	12rEE	.	.
.	.	20fJJ	.
.	.	20ccLL	.
[12c	12EnL	.	.
.	.	20g	.
=9	=9	=9	=9
6c]	12F	20cc	.
.	.	20a-	.
.	12BB-J	.	.
.	.	20e-JJ	.
.	.	20b-LL	.
[12d	12GL	.	.
.	.	20en	.
6d]	12A-	20b-	.
.	.	20f	.
.	12BB-J	.	.
.	.	20dJJ	.
.	.	20ccLL	.
[12c	12EnL	.	.
.	.	20g	.
6c]	12F	20cc	.
.	.	20a-	.
.	12BB-J	.	.
.	.	20e-XJJ	.
.	.	20ee-LL	.
[12c	12EL	.	.
.	.	20g	.
6c]	12F	20ee-	.
.	.	20a-	.
.	12BB-J	.	.
.	.	20e-JJ	.
.	.	40cLLL	.
12rc	12A-L	.	.
.	.	40e-	.
.	.	40a-	.
.	.	40ccJ	.
=10	=10	=10	=10
1ryy	12BB-	20gg	.
.	.	20cc	.
.	12EE-J	.	.
.	.	20a-JJ	.
.	.	20ee-LL	.
.	12FL 12c	.	.
.	.	20g	.
.	12BB-	20dd	.
.	.	20a-	.
.	12EE-J	.	.
.	.	20e-JJ	.
.	.	20ccLL	.
.	12A-L	.	.
.	.	20d	.
.	12BB-	20b-	.
.	.	20e-	.
.	12EE-J	.	.
.	.	20cJJ	.
.	.	20a-LL	.
.	12FL	.	.
.	.	20Bn	.
.	12BB-	20f	.
.	.	20c	.
.	12EE-J	.	.
.	.	20A-JJ	.
.	.	40e-LLL	.
.	12FL 12c	.	.
.	.	40a-	.
.	.	40cc	.
.	.	40ee-J	.
=11	=11	=11	=11
4rc	12BB-	20bb-	.
.	.	20ee-	.
.	12EE-J	.	.
.	.	20ccJJ	.
.	.	20ggLL	.
.	12A-L 12e-	.	.
.	.	20bn	.
4rc	12BB-	20ff	.
.	.	20cc	.
.	12EE-J	.	.
.	.	20a-JJ	.
.	.	20ee-LL	.
.	12FL 12c	.	.
.	.	20g	.
4rc	12BB-	20dd	.
.	.	20a-	.
.	12EE-J	.	.
.	.	20e-JJ	.
.	.	20ccLL	.
.	12FL	.	.
.	.	20d	.
12rc	12BB-	20a-	.
.	.	20e-	.
12rc	12EE-J	.	.
.	.	20cJJ	.
.	.	20ccLL	.
[12E-	12F#XL	.	.
.	.	20d	.
=12	=12	=12	=12
6E-]	12G	20b-	.
.	.	20e-	.
.	12EE-J	.	.
.	.	20d-XJJ	.
.	.	20ffLL	.
12rc	12cL	.	.
.	.	20an	.
12rc	12d-X	20ee-	.
.	.	20b-	.
12rc	12E-J	.	.
.	.	20gJJ	.
.	.	20dd-XLL	.
[12E-	12GL	.	.
.	.	20f	.
6E-]	12A-	20cc	.
.	.	20e-	.
.	12AA-J	.	.
.	.	20cJJ	.
.	.	20bb-XLL	.
[12f	12BnL	.	.
.	.	20ddn	.
6f]	12c	20aa-	.
.	.	20ee-	.
.	12FJ	.	.
.	.	20a-XJJ	.
.	.	20ggLL	.
[12e-	12GL	.	.
.	.	20bn	.
=13	=13	=13	=13
6e-]	12A-	20gg	.
.	.	20cc	.
.	12BB-J	.	.
.	.	20a-JJ	.
.	.	20ggLL	.
[12d	12GL	.	.
.	.	20b-	.
6d]	12A-	20gg	.
.	.	20cc-X	.
.	12BB-J	.	.
.	.	20a-JJ	.
.	.	20ee-LL	.
[12e-	12F#XL	.	.
.	.	20an	.
6e-]	12G	20ee-	.
.	.	20b-	.
.	12E-J	.	.
.	.	20gJJ	.
.	.	20ee-LL	.
12rc	12rEE	.	.
.	.	20b-	.
12rc	6rEE	20g	.
.	.	20e-	.
12rc	.	.	.
.	.	20B-JJ	.
.	.	20ccnLL	.
[12E-	12F#XL	.	.
.	.	20d	.
=14	=14	=14	=14
6E-]	12G	20b-	.
.	.	20e-	.
.	12EE-J	.	.
.	.	20d-XJJ	.
.	.	20ffLL	.
12rc	12cL	.	.
.	.	20an	.
12rc	12d-X	20ee-	.
.	.	20b-	.
12rc	12E-J	.	.
.	.	20gJJ	.
.	.	20dd-XLL	.
[12E-	12GL	.	.
.	.	20f	.
6E-]	12A-	20cc	.
.	.	20e-	.
.	12AA-J	.	.
.	.	20cJJ	.
.	.	20bb-XLL	.
[12f	12BnL	.	.
.	.	20ddn	.
6f]	12c	20aa-	.
.	.	20ee-	.
.	12FJ	.	.
.	.	20a-XJJ	.
.	.	20ggLL	.
[12e-	12GL	.	.
.	.	20bn	.
=15	=15	=15	=15
6e-]	12A-	20gg	.
.	.	20cc	.
.	12BB-J	.	.
.	.	20a-JJ	.
.	.	20ggLL	.
[12d	12GL	.	.
.	.	20b-	.
6d]	12A-	20gg	.
.	.	20cc-X	.
.	12BB-J	.	.
.	.	20a-JJ	.
.	.	20ee-LL	.
[12e-	12F#XL	.	.
.	.	20an	.
6e-]	12G	20ee-	.
.	.	20b-	.
.	12E-J	.	.
.	.	20gJJ	.
.	.	20ee-LL	.
12rc	12rEE	.	.
.	.	20b-	.
12rc	4rEE	20g	.
.	.	20e-	.
12rc	.	.	.
.	.	20B-JJ	.
.	.	20gLL	.
[12BBB- [12BB-	.	.	.
.	.	20Bn	.
*v	*v	*	*
=16	=16	=16
6BBB-] 6BB-]	20g	.
.	20c	.
.	20A-JJ	.
.	20gLL	.
[12BBB- [12BB-	.	.
.	20d-X	.
6BBB-] 6BB-]	20g	.
.	20dn	.
.	20A-JJ	.
.	20gLL	.
[12EE- [12E-	.	.
.	20d	.
6EE-] 6E-]	20g	.
.	20e-	.
.	20GJJ	.
.	20gLL	.
[12CC-X [12C-X	.	.
.	20d	.
6CC-] 6C-]	20g	.
.	20e-	.
.	20AnJJ	.
.	20gLL	.
[12EE- [12E-	.	.
.	20d	.
=17	=17	=17
10.EE-] 10.E-]	20g	.
.	20e-	.
.	20B-JJ	.
10r	10r	.
10.r	10.r	.
[10EE- [10E-	20gLL	.
.	20d	.
10.EE-] 10.E-]	20g	.
.	20e-	.
.	20B-JJ	.
10r	10r	.
4r	4r	.
=18	=18	=18
4r	4r	.
2EE- 2E-	2G 2B- 2e-	.
4EE- 4E-	4G 4B- 4e-	.
*	*clefF4	*
=19||	=19||	=19||
*k[f#c#g#d#a#]	*k[f#c#g#d#a#]	*
*	*^	*
*	*	*^	*
2GGGn 2GGn	2d#	2B	2Fn\	.
4GGG#X 4GG#X	4.e	2B	4E\	.
4CCC# 4CC#	.	.	4G#\	.
.	8e#X	.	.	.
=20	=20	=20	=20	=20
4CCC##X 4CC##X	8.e#XL	4B	8.Gn\L	.
.	16f#Jk	.	16F#\Jk	.
2DDD# 2DD#	2f# 2a#	2B	2F#\	.
4GGG# 4GG#	4d#	4B	4F#\	.
=21	=21	=21	=21	=21
1CCC# 1CC#	2g#	2B	2E\	.
.	4.f#	2B	2G#\	.
.	8e	.	.	.
=22	=22	=22	=22	=22
2EEE 2EE	2d#	2B	2Gn\	.
2GGGn 2GGn	6B#X	2A#	2E\	.
.	6c#	.	.	.
.	6c##X	.	.	.
=23	=23	=23	=23	=23
2GGGn 2GGn	2d#	2B	2Fn\	.
4GGG#X 4GG#X	4.e	2B	4E\	.
4CCC# 4CC#	.	.	4G#\	.
.	8e#X	.	.	.
=24	=24	=24	=24	=24
4CCC##X 4CC##X	8.e#XL	4B	8.Gn\L	.
.	16f#Jk	.	16F#\Jk	.
2DDD# 2DD#	2f# 2a#	2B	2F#\	.
4GGG# 4GG#	4d#	4B	4F#\	.
=25	=25	=25	=25	=25
[2CCC# [2CC#	2a#	[2B	[2E#X\	.
4.CCC#] 4.CC#]	4.g#	4.B]	4.E#\]	.
8FFF# 8FF#	8f#	8A#	8F#\	.
=26	=26	=26	=26	=26
1FFF# 1FF#	4f#	1A#	1F#	.
.	2c#	.	.	.
.	4d#	.	.	.
=27	=27	=27	=27	=27
1CC# 1GG#	4.e	1B	1E	.
.	8d#	.	.	.
.	8g#	.	.	.
.	4d#	.	.	.
.	8d#	.	.	.
=28	=28	=28	=28	=28
1FFF# 1FF#	4d#	1A#	1E	.
.	4c#	.	.	.
.	4B#X	.	.	.
.	4c#	.	.	.
=29	=29	=29	=29	=29
1CC# 1GG#	4.e	1B	1E	.
.	8d#	.	.	.
.	8b	.	.	.
.	4d#	.	.	.
.	8d#	.	.	.
=30	=30	=30	=30	=30
1FF#	4d#	1A#	1E	.
.	4c#	.	.	.
.	4B	.	.	.
.	4c#	.	.	.
=31	=31	=31	=31	=31
4BB	2d#	4Gn	2Fn\	.
4GGn	.	4B	.	.
4GG#X	4.e	2B	4E\	.
4CC#	.	.	4G#X\	.
.	8e#X	.	.	.
=32	=32	=32	=32	=32
4CC##X	8.e#XL	4B	8.Gn\L	.
.	16f#Jk	.	16F#\Jk	.
2DD#	2f# 2a#	2B	2F#\	.
4D#	4f#	4B	4r	.
*	*v	*v	*v	*
*	*clefG2	*
=33||	=33||	=33||
*k[b-e-a-]	*k[b-e-a-]	*
*	*^	*
2G-X	2b-	2c-X 2e-	.
2F	4.a-	2cn 2e-	.
.	8an	.	.
=34	=34	=34	=34
4BB-	8ccL	4d 4f	.
.	8b-J	.	.
2F	2a-X	2c 2e-	.
16qqc/LL	16qqe-/LL	.	.
16qqF/JJ	16qqa-/JJ	.	.
4BB-	20ee-LL	4rc	.
.	20a-	.	.
.	20e-JJ	.	.
.	40cLLL	.	.
.	40e-	.	.
.	40a-	.	.
.	40ccJ	.	.
*	*v	*v	*
=35	=35	=35
12BB-L	20gg	.
.	20cc	.
12EE-J	.	.
.	20a-JJ	.
.	20ee-LL	.
12FL 12c	.	.
.	20g	.
12BB-	20dd	.
.	20a-	.
12EE-J	.	.
.	20e-JJ	.
.	20ccLL	.
12A-L	.	.
.	20d	.
12BB-	20b-	.
.	20e-	.
12EE-J	.	.
.	20cJJ	.
.	20a-LL	.
12FL	.	.
.	20Bn	.
12BB-	20f	.
.	20c	.
12EE-J	.	.
.	20A-JJ	.
.	40e-LLL	.
12FL 12c	.	.
.	40a-	.
.	40cc	.
.	40ee-J	.
=36	=36	=36
12BB-	20bb-	.
.	20ee-	.
12EE-J	.	.
.	20ccJJ	.
.	20ggLL	.
12A-L 12e-	.	.
.	20bn	.
12BB-	20ff	.
.	20cc	.
12EE-J	.	.
.	20a-JJ	.
.	20ee-LL	.
12FL 12c	.	.
.	20g	.
12BB-	20dd	.
.	20a-	.
12EE-J	.	.
.	20e-JJ	.
.	20ccLL	.
12FL	.	.
.	20d	.
12BB-	20a-	.
.	20e-	.
12EE-J	.	.
.	20cJJ	.
.	20ccLL	.
[12BB-L 12G	.	.
.	20en	.
=37	=37	=37
*^	*	*
12BB-] 12A-	4rEE	20b-	.
.	.	20f	.
12EE-J	.	.	.
.	.	20dJJ	.
.	.	20ggLL	.
[12B-L 12g	.	.	.
.	.	20cc#X	.
12B-J] 12a-	4rEE	20ff	.
.	.	20dd	.
12rc	.	.	.
.	.	20b-JJ	.
.	.	20a-LL	.
12C-XL 12A-	.	.	.
.	.	20d	.
12An	4rEE	20g	.
.	.	20e-	.
12EE-J	.	.	.
.	.	20c-XJJ	.
.	.	20ffLL	.
[12A [12e-	.	.	.
.	.	20cc-X	.
12AL_ 12e-_	12rEE	20ee-	.
.	.	20cc-	.
12AJ] 12e-]	12rEE	.	.
.	.	20gJJ	.
.	.	20ddLL	.
[12B-	12DL	.	.
.	.	20f#X	.
=38	=38	=38	=38
6B-]	12E-	20dd	.
.	.	20g	.
.	12FFJ	.	.
.	.	20e-JJ	.
.	.	20ddLL	.
[12An	12DL	.	.
.	.	20fn	.
6A]	12E-	20dd	.
.	.	20g-X	.
.	12FFJ	.	.
.	.	20e-JJ	.
.	.	20b-LL	.
[12B-	12C#XL	.	.
.	.	20en	.
6B-]	12D	20b-	.
.	.	20f	.
.	12BB-J	.	.
.	.	20dJJ	.
.	.	20B-LL	.
12rc	12rEE	.	.
.	.	20d	.
6rc	4rEE	20f	.
.	.	20b-	.
.	.	20ddJJ	.
.	.	40e-XLLL	.
12BB-L	.	.	.
.	.	40a-	.
.	.	40cc	.
.	.	40ee-J	.
*v	*v	*	*
=39	=39	=39
12F	20bb-	.
.	20ee-	.
12A-J	.	.
.	20ccJJ	.
.	20aa-LL	.
12e-L	.	.
.	20bn	.
12a-J	20gg	.
.	20cc	.
12r	.	.
.	20a-JJ	.
.	20ffLL	.
12r	.	.
.	20g	.
4r	20ee-	.
.	20a-	.
.	20fJJ	.
.	20ccLL	.
.	20d	.
12r	20b-X	.
.	20e-	.
12r	.	.
.	20cJJ	.
.	20a-LL	.
12EnL	.	.
.	20d	.
=40	=40	=40
12F	20a-	.
.	20e-	.
12BB-J	.	.
.	20cJJ	.
.	20fLL	.
12GL	.	.
.	20c#X	.
12A-	20f	.
.	20d	.
12BB-J	.	.
.	20B-JJ	.
.	20a-LL	.
12EnL	.	.
.	20d	.
12F	20a-	.
.	20e-	.
12BB-J	.	.
.	20cnJJ	.
.	20fLL	.
12GL	.	.
.	20c#X	.
12A-	20f	.
.	20d	.
12FJ	.	.
.	20B-JJ	.
.	40a-LLL	.
12BB-L	.	.
.	40ccn	.
.	40ee-	.
.	40aa-J	.
=41	=41	=41
*^	*	*
12F	4rEE	20ddd	.
.	.	20aa-	.
12e-J	.	.	.
.	.	20ee-JJ	.
.	.	20cccLL	.
*clefG2	*	*	*
12a-L	.	.	.
.	.	20dd	.
12ccJ	4rc	20bb-	.
.	.	20ee-	.
12raa	.	.	.
.	.	20ccJJ	.
.	.	20aa-LL	.
12raa	.	.	.
.	.	20bn	.
*clefF4	*	*	*
4rc	4rEE	20gg	.
.	.	20cc	.
.	.	20a-JJ	.
.	.	20ffLL	.
.	.	20g	.
12rc	12rEE	20ee-	.
.	.	20a-	.
12rc	12rEE	.	.
.	.	20fJJ	.
.	.	20ccLL	.
[12c	12EnL	.	.
.	.	20g	.
=42	=42	=42	=42
6c]	12F	20cc	.
.	.	20a-	.
.	12BB-J	.	.
.	.	20e-JJ	.
.	.	20b-LL	.
[12d	12GL	.	.
.	.	20en	.
6d]	12A-	20b-	.
.	.	20f	.
.	12BB-J	.	.
.	.	20dJJ	.
.	.	20ccLL	.
[12c	12EnL	.	.
.	.	20g	.
6c]	12F	20cc	.
.	.	20a-	.
.	12BB-J	.	.
.	.	20e-XJJ	.
.	.	20ee-LL	.
[12c	12EL	.	.
.	.	20g	.
6c]	12F	20ee-	.
.	.	20a-	.
.	12BB-J	.	.
.	.	20e-JJ	.
.	.	40cLLL	.
12rc	12A-L	.	.
.	.	40e-	.
.	.	40a-	.
.	.	40ccJ	.
=43	=43	=43	=43
1ryy	12BB-	20gg	.
.	.	20cc	.
.	12EE-J	.	.
.	.	20a-JJ	.
.	.	20ee-LL	.
.	12FL 12c	.	.
.	.	20g	.
.	12BB-	20dd	.
.	.	20a-	.
.	12EE-J	.	.
.	.	20e-JJ	.
.	.	20ccLL	.
.	12A-L	.	.
.	.	20d	.
.	12BB-	20b-	.
.	.	20e-	.
.	12EE-J	.	.
.	.	20cJJ	.
.	.	20a-LL	.
.	12FL	.	.
.	.	20Bn	.
.	12BB-	20f	.
.	.	20c	.
.	12EE-J	.	.
.	.	20A-JJ	.
.	.	40e-LLL	.
.	12FL 12c	.	.
.	.	40a-	.
.	.	40cc	.
.	.	40ee-J	.
=44	=44	=44	=44
4rc	12BB-	20bb-	.
.	.	20ee-	.
.	12EE-J	.	.
.	.	20ccJJ	.
.	.	20ggLL	.
.	12A-L 12e-	.	.
.	.	20bn	.
4rc	12BB-	20ff	.
.	.	20cc	.
.	12EE-J	.	.
.	.	20a-JJ	.
.	.	20ee-LL	.
.	12FL 12c	.	.
.	.	20g	.
4rc	12BB-	20dd	.
.	.	20a-	.
.	12EE-J	.	.
.	.	20e-JJ	.
.	.	20ccLL	.
.	12FL	.	.
.	.	20d	.
12rc	12BB-	20a-	.
.	.	20e-	.
12rc	12EE-J	.	.
.	.	20cJJ	.
.	.	20ccLL	.
[12E-	12F#XL	.	.
.	.	20d	.
=45	=45	=45	=45
6E-]	12G	20b-	.
.	.	20e-	.
.	12EE-J	.	.
.	.	20d-XJJ	.
.	.	20ffLL	.
12rc	12cL	.	.
.	.	20an	.
12rc	12d-X	20ee-	.
.	.	20b-	.
12rc	12E-J	.	.
.	.	20gJJ	.
.	.	20dd-XLL	.
[12E-	12GL	.	.
.	.	20f	.
6E-]	12A-	20cc	.
.	.	20e-	.
.	12AA-J	.	.
.	.	20cJJ	.
.	.	20bb-XLL	.
[12f	12BnL	.	.
.	.	20ddn	.
6f]	12c	20aa-	.
.	.	20ee-	.
.	12FJ	.	.
.	.	20a-XJJ	.
.	.	20ggLL	.
[12e-	12GL	.	.
.	.	20bn	.
=46	=46	=46	=46
6e-]	12A-	20gg	.
.	.	20cc	.
.	12BB-J	.	.
.	.	20a-JJ	.
.	.	20ggLL	.
[12d	12GL	.	.
.	.	20b-X	.
6d]	12A-	20gg	.
.	.	20cc-X	.
.	12BB-J	.	.
.	.	20a-JJ	.
.	.	20ee-LL	.
[12e-	12F#XL	.	.
.	.	20an	.
6e-]	12G	20ee-	.
.	.	20b-	.
.	12E-J	.	.
.	.	20gJJ	.
.	.	20ee-LL	.
12rc	12rEE	.	.
.	.	20b-	.
12rc	6rEE	20g	.
.	.	20e-	.
12rc	.	.	.
.	.	20B-JJ	.
.	.	20ccnLL	.
[12E-	12F#XL	.	.
.	.	20d	.
=47	=47	=47	=47
6E-]	12G	20b-	.
.	.	20e-	.
.	12EE-J	.	.
.	.	20d-XJJ	.
.	.	20ffLL	.
12rc	12cL	.	.
.	.	20an	.
12rc	12d-X	20ee-	.
.	.	20b-	.
12rc	12E-J	.	.
.	.	20gJJ	.
.	.	20dd-XLL	.
[12E-	12GL	.	.
.	.	20f	.
6E-]	12A-	20cc	.
.	.	20e-	.
.	12AA-J	.	.
.	.	20cJJ	.
.	.	20bb-XLL	.
[12f	12BnL	.	.
.	.	20ddn	.
6f]	12c	20aa-	.
.	.	20ee-	.
.	12FJ	.	.
.	.	20a-XJJ	.
.	.	20ggLL	.
[12e-	12GL	.	.
.	.	20bn	.
=48	=48	=48	=48
6e-]	12A-	20gg	.
.	.	20cc	.
.	12BB-J	.	.
.	.	20a-JJ	.
.	.	20ggLL	.
[12d	12GL	.	.
.	.	20b-X	.
6d]	12A-	20gg	.
.	.	20cc-X	.
.	12BB-J	.	.
.	.	20a-JJ	.
.	.	20ee-LL	.
[12e-	12F#XL	.	.
.	.	20an	.
6e-]	12G	20ee-	.
.	.	20b-	.
.	12E-J	.	.
.	.	20gJJ	.
.	.	20ee-LL	.
12rc	12rEE	.	.
.	.	20b-	.
12rc	4rEE	20g	.
.	.	20e-	.
12rc	.	.	.
.	.	20B-JJ	.
.	.	20gLL	.
[12BBB- [12BB-	.	.	.
.	.	20Bn	.
*v	*v	*	*
=49	=49	=49
6BBB-] 6BB-]	20g	.
.	20c	.
.	20A-JJ	.
.	20gLL	.
[12BBB- [12BB-	.	.
.	20d-X	.
6BBB-] 6BB-]	20g	.
.	20dn	.
.	20A-JJ	.
.	20gLL	.
[12EE- [12BB- [12E-	.	.
.	20d	.
6EE-] 6BB-] 6E-]	20g	.
.	20e-	.
.	20GJJ	.
.	20gLL	.
[12CC-X [12C-X	.	.
.	20d	.
6CC-] 6C-]	20g	.
.	20e-	.
.	20AnJJ	.
.	20gLL	.
[12EE- [12E-	.	.
.	20d	.
=50	=50	=50
10.EE-] 10.E-]	20g	.
.	20e-	.
.	20B-JJ	.
10r	10r	.
10.r	10.r	.
[10EE- [10E-	20gLL	.
.	20d	.
10.EE-] 10.E-]	20g	.
.	20e-	.
.	20B-JJ	.
10r	10r	.
4r	4r	.
=51	=51	=51
4EE- 4BB- 4G	4e- 4b- 4ee-	.
4r	4r	.
2r	2r	.
==	==	==
*-	*-	*-
!!!system-decoration: {(*)}
!!!ENC: Bryan Jacob Bell
!!!END: November 2021 to April 2022
!!!PED: Konstantin Igumnov and Yakov Milstein
!!!PTL: A.N. Skryabin: Polnoe sobranie sochinenii dlia fortepiano (Muzgiz)
